src/lib/packages/icons/src/assets/filled/face-eyes-times.svg

<svg width="24" height="24" viewBox="0 0 24 24" fill="none" xmlns="http://www.w3.org/2000/svg">
<path d="M12 2C6.48 2 2 6.48 2 12C2 17.52 6.48 22 12 22C17.52 22 22 17.52 22 12C22 6.48 17.52 2 12 2ZM7.46997 11.53C7.17997 11.24 7.17997 10.76 7.46997 10.47L7.94 10L7.46997 9.53C7.17997 9.24 7.17997 8.76 7.46997 8.47C7.75997 8.18 8.24003 8.18 8.53003 8.47L9 8.94L9.46997 8.47C9.75997 8.18 10.24 8.18 10.53 8.47C10.82 8.76 10.82 9.24 10.53 9.53L10.06 10L10.53 10.47C10.82 10.76 10.82 11.24 10.53 11.53C10.38 11.68 10.19 11.75 10 11.75C9.81 11.75 9.61997 11.68 9.46997 11.53L9 11.06L8.53003 11.53C8.38003 11.68 8.19 11.75 8 11.75C7.81 11.75 7.61997 11.68 7.46997 11.53ZM15.46 18H8.53998C8.22998 18 7.99998 17.72 8.03998 17.41C8.31998 15.48 9.98 14 12 14C14.02 14 15.67 15.48 15.96 17.41C16.01 17.72 15.77 18 15.46 18ZM16.53 10.47C16.82 10.76 16.82 11.24 16.53 11.53C16.38 11.68 16.19 11.75 16 11.75C15.81 11.75 15.62 11.68 15.47 11.53L15 11.06L14.53 11.53C14.38 11.68 14.19 11.75 14 11.75C13.81 11.75 13.62 11.68 13.47 11.53C13.18 11.24 13.18 10.76 13.47 10.47L13.94 10L13.47 9.53C13.18 9.24 13.18 8.76 13.47 8.47C13.76 8.18 14.24 8.18 14.53 8.47L15 8.94L15.47 8.47C15.76 8.18 16.24 8.18 16.53 8.47C16.82 8.76 16.82 9.24 16.53 9.53L16.06 10L16.53 10.47Z" fill="currentColor"/>
</svg>

<svg xmlns="http://www.w3.org/2000/svg" width="24" height="24" fill="none"><path fill="currentColor" d="M12 2C6.48 2 2 6.48 2 12s4.48 10 10 10 10-4.48 10-10S17.52 2 12 2Zm-4.53 9.53a.754.754 0 0 1 0-1.06l.47-.47-.47-.47a.754.754 0 0 1 0-1.06c.29-.29.77-.29 1.06 0l.47.47.47-.47c.29-.29.77-.29 1.06 0 .29.29.29.77 0 1.06l-.47.47.47.47c.29.29.29.77 0 1.06-.15.15-.34.22-.53.22s-.38-.07-.53-.22L9 11.06l-.47.47c-.15.15-.34.22-.53.22s-.38-.07-.53-.22ZM15.46 18H8.54c-.31 0-.54-.28-.5-.59A3.991 3.991 0 0 1 12 14c2.02 0 3.67 1.48 3.96 3.41.05.31-.19.59-.5.59Zm1.07-7.53c.29.29.29.77 0 1.06-.15.15-.34.22-.53.22s-.38-.07-.53-.22l-.47-.47-.47.47c-.15.15-.34.22-.53.22s-.38-.07-.53-.22a.754.754 0 0 1 0-1.06l.47-.47-.47-.47a.754.754 0 0 1 0-1.06c.29-.29.77-.29 1.06 0l.47.47.47-.47c.29-.29.77-.29 1.06 0 .29.29.29.77 0 1.06l-.47.47.47.47Z"/></svg>
